public/icons/landscape_icon.svg

<svg width="330" height="330" viewBox="0 0 330 330" fill="none" xmlns="http://www.w3.org/2000/svg">
<path d="M76.378 55.4792C79.1881 45.4941 85.909 37.0661 95.0166 32.1053C104.843 26.6987 116.041 25.5882 126.765 28.765C137.946 32.0045 147.343 39.6275 152.821 49.9023C155.414 54.7787 157.258 60.4489 157.704 65.972C168.59 68.6104 177.355 74.7002 183.255 84.3134C189.148 93.9213 190.979 105.48 188.346 116.44C185.894 126.236 179.821 133.685 171.761 139.529C169.164 151.144 164.452 160.417 154.139 167.05C144.939 172.968 134.205 174.657 123.592 172.174C121.806 171.756 120.048 171.203 118.301 170.646L118.284 204.209C144.518 206.786 167.59 214.607 191.128 226.196C208.475 220.451 225.123 216.311 243.305 214.074L243.27 194.805L215.1 194.856C210.177 194.864 204.797 195.316 199.935 194.58C198.012 194.289 195.757 193.72 194.336 192.334C193.414 191.435 193.015 190.305 193.018 189.028C193.023 187.199 193.77 185.454 194.648 183.882C197.452 178.872 201.427 174.174 204.781 169.5C208.717 164.017 212.4 158.314 216.442 152.915C212.905 152.978 205.934 153.872 203.172 151.36C202.351 150.613 202.287 149.892 202.378 148.837C202.909 142.679 223.412 117.427 228.242 109.787C225.825 109.843 222.86 110.204 220.62 109.23C219.526 107.961 219 106.938 219.117 105.15C219.201 103.852 219.692 102.63 220.321 101.508C221.862 98.7567 242.414 69.2122 243.388 68.4677C244.851 67.3491 246.936 67.0145 248.722 67.3229C250.147 67.5686 251.21 68.6768 252.103 69.7342C257.182 75.7465 261.223 83.1805 265.664 89.7081C268.253 93.5136 271.431 96.9995 273.872 100.866C274.892 102.481 275.875 104.458 275.454 106.404C275.225 107.46 274.375 108.436 273.45 108.982C272.028 109.822 270.456 109.736 268.87 109.774C268.232 109.79 267.596 109.824 266.959 109.841C271.944 116.778 292.961 143.166 292.606 149.428C291.499 151.157 290.228 152.175 288.205 152.692C285.261 153.446 281.358 152.895 278.319 152.901L292.72 173.534C295.183 177.067 298.164 180.7 300.085 184.545C300.88 186.135 301.583 188.14 301.326 189.923C301.13 191.298 300.4 192.301 299.242 193.044C294 196.41 259.913 194.775 251.497 194.802L251.503 213.429C260.847 213.012 293.587 211.665 300.476 216.466C301.395 217.836 301.996 218.659 302 220.341C301.091 221.818 300.303 222.36 298.549 222.74C292.759 223.994 285.578 222.044 279.669 221.604C275.892 221.322 272.066 221.345 268.28 221.346C228.302 221.363 189.84 231.519 156.163 253.389C140.434 263.604 124.626 276.061 112.459 290.432C109.119 294.376 106.302 298.809 103.132 302.895C101.387 305.146 98.563 308.294 95.5147 306.379C94.5782 305.791 93.9069 304.576 93.3752 303.623C85.1585 303.651 58.0441 305.122 52.0684 302.756C50.5264 300.84 50.0477 298.579 49.749 296.19C48.9447 289.756 49.4891 282.722 49.5078 276.231L49.557 239.349C48.5459 239.349 47.2518 239.325 46.3034 238.921C45.0443 238.385 44.485 237.279 44.0481 236.066C44.0324 234.804 44.1078 233.835 44.8494 232.77C46.0442 231.053 47.6431 230.841 49.5563 230.514L49.4681 217.447C47.7745 217.409 46.0816 217.501 44.8225 216.166C43.8181 215.101 43.553 214.121 43.5553 212.692C44.2057 210.933 45.2668 210.193 46.9277 209.376C58.6773 203.593 96.4295 203.044 110.36 203.386L110.334 172.108C99.1731 177.08 87.9604 178.886 76.2249 174.347C66.6677 170.651 58.4555 163.036 54.3916 153.586C51.4628 146.775 51.2686 140.256 51.8511 133.015C43.1438 123.25 38.3988 111.314 39.0612 98.1226C39.6706 85.9787 45.0816 74.5755 54.1034 66.426C60.3665 60.7767 68.0799 56.9861 76.378 55.4792Z" fill="#080807"/>
<path d="M49.5567 239.349C55.7197 238.249 62.4608 238.49 68.6911 238.9C92.3547 240.456 113.773 247.517 134.647 258.56C124.411 266.506 96.6628 291.291 93.3748 303.623C85.1581 303.651 58.0437 305.122 52.0681 302.756C50.526 300.84 50.0473 298.579 49.7486 296.19C48.9443 289.756 49.4887 282.722 49.5074 276.232L49.5567 239.349Z" fill="#FFD026"/>
<path d="M49.4683 217.447C56.0085 214.888 63.8092 214.15 70.7579 213.198C106.331 208.072 142.628 213.082 175.484 227.653C177.515 228.547 179.536 229.461 181.548 230.395C167.528 236.858 154.309 244.158 141.798 253.256C119.158 240.759 96.62 233.073 70.7833 230.865C63.8443 230.272 56.3401 231.551 49.5564 230.513L49.4683 217.447Z" fill="#FFD026"/>
<path d="M110.574 35.3164C117.333 34.5726 124.163 35.8122 130.231 38.8852C137.784 42.6355 146.446 51.0822 148.323 59.6065C149.043 62.8774 148.882 66.5664 150.095 69.6931C151.749 73.9512 159.817 75.0512 163.667 76.836C171.015 80.2428 176.572 87.0958 179.327 94.6031C183.602 106.251 181.316 119.81 172.234 128.539C170.157 130.535 166.61 131.609 165.026 133.895C162.368 137.735 162.651 143.914 160.552 148.271C157.159 155.313 150.697 160.733 143.358 163.283C134.74 166.28 126.43 165.256 118.319 161.36C118.264 155.021 118.309 148.682 118.453 142.345C126.811 132.865 138.57 124.631 145.391 114.043C146.367 112.529 146.224 111.819 145.888 110.165C144.984 108.872 144.346 108.477 142.843 108.021C141.43 108.105 140.452 108.488 139.307 109.325C134.604 112.762 123.044 125.798 118.279 130.647C118.305 130.089 118.325 129.531 118.341 128.973C118.529 121.146 119.688 101.142 118.078 94.5307C117.776 93.2881 116.904 92.3666 116.049 91.4615C114.206 91.5324 112.732 91.6914 111.364 92.9953C108.954 98.216 110.351 125.897 110.352 132.974C105.636 128.85 91.8063 113.658 86.567 113.036C85.1071 112.863 84.6538 113.355 83.6516 114.228C83.3544 115.026 82.9773 115.941 82.987 116.802C83.0318 120.792 106.293 140.294 110.389 144.38L110.405 162.323C109.341 162.977 108.267 163.611 107.182 164.227C99.3457 168.649 90.2404 170.011 81.5495 167.486C73.5389 165.147 66.7896 159.713 62.7929 152.385C58.8208 145.04 58.947 138.179 61.2717 130.374C60.5361 129.706 59.8081 129.031 59.0882 128.347C51.6474 121.237 47.3467 111.455 47.1376 101.165C46.9083 87.7089 54.9518 72.2591 67.7581 66.8084C71.1649 65.3589 79.4682 64.8705 81.6973 62.3098C81.8086 62.1814 81.9064 62.0425 82.0125 61.9111C84.8995 58.3243 85.6014 53.3792 87.9642 49.4199C92.9504 41.065 101.534 37.4999 110.574 35.3164Z" fill="#FFD026"/>
<path d="M246.765 77.5126C250.284 79.7238 261.407 97.2773 264.92 102.195C263.034 102.235 260.021 101.969 258.343 102.85C256.903 103.606 256.337 104.713 255.977 106.223C257.572 112.901 276.874 137.431 282.236 144.862C278.855 144.769 274.834 144.286 271.532 145.025C269.816 145.409 269.027 145.969 268.061 147.368C267.442 154.132 286.873 179.427 291.724 186.471L247.851 186.498L202.472 186.5C207.896 179.46 224.023 158.468 226.459 150.944C227.028 149.186 227.277 147.657 226.395 145.976C223.2 143.754 216.871 144.77 213.083 144.891C218.11 139.027 236.377 114.744 238.306 108.672C238.772 107.204 238.915 106.247 238.048 104.892C236.648 102.702 233.474 102.154 231.101 101.844L230.453 101.762C232.752 96.2923 242.855 83.4815 246.765 77.5126Z" fill="#FEFEFE"/>
<path d="M266.771 251.133C272.502 250.081 294.084 250.112 299.057 252.238C300.765 252.968 301.191 253.742 301.784 255.359C301.517 257.363 300.948 258.792 298.9 259.507C295.109 260.831 285.262 258.765 280.676 258.739C275.846 258.712 270.912 259.007 266.107 259.488C238.406 262.269 213.205 273.624 191.895 291.363C188.33 294.515 179.676 305.337 176.194 306.482C175.05 306.859 173.797 306.623 172.821 305.922C171.928 305.281 171.409 304.457 171.302 303.371C171.099 301.313 172.745 299.062 173.98 297.524C195.39 270.856 233.478 254.681 266.771 251.133Z" fill="#080807"/>
</svg>

<svg xmlns="http://www.w3.org/2000/svg" width="330" height="330" fill="none" viewBox="0 0 330 330"><path fill="#080807" d="M76.378 55.48a38.5 38.5 0 0 1 18.639-23.375c9.826-5.406 21.024-6.517 31.748-3.34a43.13 43.13 0 0 1 26.056 21.137c2.593 4.877 4.437 10.547 4.883 16.07 10.886 2.638 19.651 8.728 25.551 18.341a42.47 42.47 0 0 1 5.091 32.127c-2.452 9.796-8.525 17.245-16.585 23.089-2.597 11.615-7.309 20.888-17.622 27.521-9.2 5.918-19.934 7.607-30.547 5.124-1.786-.418-3.544-.971-5.291-1.528l-.017 33.563c26.234 2.577 49.306 10.398 72.844 21.987 17.347-5.745 33.995-9.885 52.177-12.122l-.035-19.269-28.17.051c-4.923.008-10.303.46-15.165-.276-1.923-.291-4.178-.86-5.599-2.246-.922-.899-1.321-2.029-1.318-3.306.005-1.829.752-3.574 1.63-5.146 2.804-5.01 6.779-9.708 10.133-14.382 3.936-5.483 7.619-11.186 11.661-16.585-3.537.063-10.508.957-13.27-1.555-.821-.747-.885-1.468-.794-2.523.531-6.158 21.034-31.41 25.864-39.05-2.417.056-5.382.417-7.622-.557-1.094-1.269-1.62-2.292-1.503-4.08.084-1.298.575-2.52 1.204-3.642 1.541-2.751 22.093-32.296 23.067-33.04 1.463-1.119 3.548-1.454 5.334-1.145 1.425.246 2.488 1.354 3.381 2.411 5.079 6.013 9.12 13.447 13.561 19.974 2.589 3.806 5.767 7.291 8.208 11.158 1.02 1.615 2.003 3.592 1.582 5.538-.229 1.056-1.079 2.032-2.004 2.578-1.422.84-2.994.754-4.58.792-.638.016-1.274.05-1.911.067 4.985 6.937 26.002 33.325 25.647 39.587-1.107 1.729-2.378 2.747-4.401 3.264-2.944.754-6.847.203-9.886.209l14.401 20.633c2.463 3.533 5.444 7.166 7.365 11.011.795 1.59 1.498 3.595 1.241 5.378-.196 1.375-.926 2.378-2.084 3.121-5.242 3.366-39.329 1.731-47.745 1.758l.006 18.627c9.344-.417 42.084-1.764 48.973 3.037.919 1.37 1.52 2.193 1.524 3.875-.909 1.477-1.697 2.019-3.451 2.399-5.79 1.254-12.971-.696-18.88-1.136-3.777-.282-7.603-.259-11.389-.258-39.978.017-78.44 10.173-112.117 32.043-15.729 10.215-31.537 22.672-43.704 37.043-3.34 3.944-6.157 8.377-9.327 12.463-1.745 2.251-4.569 5.399-7.617 3.484-.937-.588-1.608-1.803-2.14-2.756-8.216.028-35.33 1.499-41.307-.867-1.542-1.916-2.02-4.177-2.319-6.566-.804-6.434-.26-13.468-.241-19.959l.049-36.882c-1.011 0-2.305-.024-3.254-.428-1.259-.536-1.818-1.642-2.255-2.855-.016-1.262.06-2.231.801-3.296 1.195-1.717 2.794-1.929 4.707-2.256l-.088-13.067c-1.694-.038-3.386.054-4.646-1.281-1.004-1.065-1.269-2.045-1.267-3.474.65-1.759 1.712-2.499 3.373-3.316 11.75-5.783 49.502-6.332 63.432-5.99l-.026-31.278c-11.16 4.972-22.374 6.778-34.11 2.239-9.556-3.696-17.769-11.311-21.832-20.761-2.93-6.811-3.123-13.33-2.54-20.571-8.708-9.765-13.453-21.701-12.79-34.892a45.8 45.8 0 0 1 15.041-31.697 45.36 45.36 0 0 1 22.275-10.947"/><path fill="#ffd026" d="M49.557 239.349c6.163-1.1 12.904-.859 19.134-.449 23.664 1.556 45.082 8.617 65.956 19.66-10.236 7.946-37.984 32.731-41.272 45.063-8.217.028-35.331 1.499-41.307-.867-1.542-1.916-2.02-4.177-2.32-6.566-.804-6.434-.26-13.468-.24-19.958zm-.089-21.902c6.54-2.559 14.341-3.297 21.29-4.249a191.1 191.1 0 0 1 104.726 14.455q3.046 1.341 6.064 2.742c-14.02 6.463-27.239 13.763-39.75 22.861-22.64-12.497-45.178-20.183-71.015-22.391-6.939-.593-14.443.686-21.227-.352zm61.106-182.131a35.03 35.03 0 0 1 19.657 3.57c7.553 3.75 16.215 12.196 18.092 20.72.72 3.271.559 6.96 1.772 10.087 1.654 4.258 9.722 5.358 13.572 7.143 7.348 3.407 12.905 10.26 15.66 17.767 4.275 11.648 1.989 25.207-7.093 33.936-2.077 1.996-5.624 3.07-7.208 5.356-2.658 3.84-2.375 10.019-4.474 14.376-3.393 7.042-9.855 12.462-17.194 15.012-8.618 2.997-16.928 1.973-25.039-1.923q-.082-9.509.134-19.015c8.358-9.48 20.117-17.714 26.938-28.302.976-1.514.833-2.224.497-3.878-.904-1.293-1.542-1.688-3.045-2.144-1.413.084-2.391.467-3.536 1.304-4.703 3.437-16.263 16.473-21.028 21.322q.038-.837.062-1.674c.188-7.827 1.347-27.831-.263-34.442-.302-1.243-1.174-2.164-2.029-3.07-1.843.071-3.317.23-4.685 1.534-2.41 5.221-1.013 32.902-1.012 39.979-4.716-4.124-18.546-19.316-23.785-19.938-1.46-.173-1.913.319-2.915 1.192-.298.798-.675 1.713-.665 2.574.045 3.99 23.306 23.492 27.402 27.578l.016 17.943a108 108 0 0 1-3.223 1.904c-7.836 4.422-16.942 5.784-25.633 3.259a31.4 31.4 0 0 1-18.756-15.101c-3.972-7.345-3.846-14.206-1.521-22.011a132 132 0 0 1-2.184-2.027 38.68 38.68 0 0 1-11.95-27.182c-.23-13.456 7.814-28.906 20.62-34.357 3.407-1.45 11.71-1.937 13.94-4.498.11-.129.208-.268.315-.399 2.886-3.587 3.588-8.532 5.951-12.491 4.986-8.355 13.57-11.92 22.61-14.104"/><path fill="#fefefe" d="M246.765 77.513c3.519 2.21 14.642 19.764 18.155 24.682-1.886.04-4.899-.226-6.577.655-1.44.756-2.006 1.863-2.366 3.373 1.595 6.678 20.897 31.208 26.259 38.639-3.381-.093-7.402-.576-10.704.163-1.716.384-2.505.944-3.471 2.343-.619 6.764 18.812 32.059 23.663 39.103l-43.873.027-45.379.002c5.424-7.04 21.551-28.032 23.987-35.556.569-1.758.818-3.287-.064-4.968-3.195-2.222-9.524-1.206-13.312-1.085 5.027-5.864 23.294-30.147 25.223-36.219.466-1.468.609-2.425-.258-3.78-1.4-2.19-4.574-2.738-6.947-3.048l-.648-.082c2.299-5.47 12.402-18.28 16.312-24.25"/><path fill="#080807" d="M266.771 251.133c5.731-1.052 27.313-1.021 32.286 1.105 1.708.73 2.134 1.504 2.727 3.121-.267 2.004-.836 3.433-2.884 4.148-3.791 1.324-13.638-.742-18.224-.768-4.83-.027-9.764.268-14.569.749-27.701 2.781-52.902 14.136-74.212 31.875-3.565 3.152-12.219 13.974-15.701 15.119-1.144.377-2.397.141-3.373-.56-.893-.641-1.412-1.465-1.519-2.551-.203-2.058 1.443-4.309 2.678-5.847 21.41-26.668 59.498-42.843 92.791-46.391"/></svg>
